projects/ccf-eui/src/assets/icons/organ-icons/organ-icon-kidneys.svg

<svg width="64" height="64" viewBox="0 0 64 64" fill="currentColor" xmlns="http://www.w3.org/2000/svg">
<g clip-path="url(#clip0_1795_265)">
<path d="M23.1893 25.2373C23.4883 23.718 23.4446 22.151 23.0613 20.6507C23.0613 20.6507 26.4746 20.6507 27.4773 15.8933C28.6933 10.3893 25.344 5.97334 19.4133 4.672C8.87464 2.41067 3.75464 15.5307 2.60264 20.8C1.45064 26.0693 1.7493 40.3627 11.136 42.4107C16.64 43.584 21.6746 42.4107 22.912 36.608C23.3267 35.218 23.2666 33.7294 22.7412 32.3773C22.2158 31.0253 21.2551 29.8867 20.0106 29.1413C21.5139 28.2747 22.6454 26.885 23.1893 25.2373Z" />
<path d="M40.8107 25.2373C40.5117 23.718 40.5555 22.151 40.9387 20.6507C40.9387 20.6507 37.5254 20.6507 36.5227 15.8933C35.3067 10.3893 38.6561 5.97334 44.5867 4.672C55.1254 2.41067 60.2454 15.5307 61.3974 20.8C62.5494 26.0693 62.2507 40.3627 52.8641 42.4107C47.3601 43.584 42.3254 42.4107 41.0881 36.608C40.6733 35.218 40.7334 33.7294 41.2588 32.3773C41.7842 31.0253 42.7449 29.8867 43.9894 29.1413C42.4862 28.2747 41.3546 26.885 40.8107 25.2373Z" />
<path d="M27.5627 31.1467V59.392H29.6961V31.1467C29.6797 29.6648 29.2776 28.2126 28.5295 26.9333C27.7813 25.654 26.7129 24.5916 25.4294 23.8507C25.4131 24.2888 25.356 24.7245 25.2587 25.152C25.1939 25.4708 25.0863 25.7794 24.9387 26.0693C25.7396 26.6544 26.3936 27.4177 26.849 28.2988C27.3043 29.18 27.5487 30.1549 27.5627 31.1467Z" />
<path d="M36.4587 31.1467V59.392H34.3253V31.1467C34.3417 29.6648 34.7438 28.2126 35.4919 26.9333C36.24 25.654 37.3085 24.5916 38.592 23.8507C38.592 24.2773 38.592 24.704 38.7627 25.152C38.8468 25.4652 38.9538 25.7718 39.0826 26.0693C38.2817 26.6544 37.6278 27.4177 37.1724 28.2988C36.717 29.18 36.4727 30.1549 36.4587 31.1467Z" />
</g>
<defs>
<clipPath id="clip0_1795_265">
<rect width="64" height="64" />
</clipPath>
</defs>
</svg>

<svg xmlns="http://www.w3.org/2000/svg" width="64" height="64" fill="currentColor" viewBox="0 0 64 64"><g clip-path="url(#a)"><path d="M23.19 25.237a10.4 10.4 0 0 0-.129-4.586s3.414 0 4.416-4.758c1.216-5.504-2.133-9.92-8.064-11.221C8.875 2.411 3.755 15.531 2.603 20.8s-.854 19.563 8.533 21.61c5.504 1.174 10.539 0 11.776-5.802a6.53 6.53 0 0 0-2.901-7.467 7.06 7.06 0 0 0 3.178-3.904M40.81 25.237a10.4 10.4 0 0 1 .129-4.586s-3.414 0-4.416-4.758c-1.216-5.504 2.133-9.92 8.064-11.221C55.125 2.411 60.245 15.531 61.397 20.8s.854 19.563-8.533 21.61c-5.504 1.174-10.539 0-11.776-5.802a6.53 6.53 0 0 1 2.901-7.467 7.06 7.06 0 0 1-3.178-3.904"/><path d="M27.563 31.147v28.245h2.133V31.147a8.53 8.53 0 0 0-4.267-7.296 7 7 0 0 1-.17 1.301 3.6 3.6 0 0 1-.32.917 6.4 6.4 0 0 1 2.624 5.078M36.459 31.147v28.245h-2.134V31.147a8.53 8.53 0 0 1 4.267-7.296c0 .426 0 .853.17 1.301q.128.47.32.917a6.4 6.4 0 0 0-2.623 5.078"/></g><defs><clipPath id="a"><path d="M0 0h64v64H0z"/></clipPath></defs></svg>
